Simply-Red-Circles/scalable/status/printer-printing.svg

<svg xmlns="http://www.w3.org/2000/svg" width="24" height="24" viewBox="0 0 6.35 6.35"><path d="M1.73 1.02v.72h2.9v-.72zM1 2.1a.39.39 0 0 0-.36.36v1.45c0 .18.18.36.36.36h.36v-.73h.37v1.78h2.9V3.55h.36v.73h.36c.18 0 .36-.18.36-.36V2.47a.39.39 0 0 0-.36-.36zm1.05 1.44H4.3v1.47H2.05zm.3.36l.82.83L4 3.9z" fill="#a02c2c"/></svg>

<?xml version="1.0" encoding="UTF-8" standalone="no"?>
<svg
   xmlns:dc="http://purl.org/dc/elements/1.1/"
   xmlns:cc="http://creativecommons.org/ns#"
   xmlns:rdf="http://www.w3.org/1999/02/22-rdf-syntax-ns#"
   xmlns:svg="http://www.w3.org/2000/svg"
   xmlns="http://www.w3.org/2000/svg"
   xmlns:sodipodi="http://sodipodi.sourceforge.net/DTD/sodipodi-0.dtd"
   xmlns:inkscape="http://www.inkscape.org/namespaces/inkscape"
   width="24"
   height="24"
   viewBox="0 0 6.35 6.35"
   version="1.1"
   id="svg4"
   sodipodi:docname="printer-printing.svg"
   inkscape:version="0.92.4 (5da689c313, 2019-01-14)">
  <metadata
     id="metadata10">
    <rdf:RDF>
      <cc:Work
         rdf:about="">
        <dc:format>image/svg+xml</dc:format>
        <dc:type
           rdf:resource="http://purl.org/dc/dcmitype/StillImage" />
        <dc:title></dc:title>
      </cc:Work>
    </rdf:RDF>
  </metadata>
  <defs
     id="defs8" />
  <sodipodi:namedview
     pagecolor="#ffffff"
     bordercolor="#666666"
     borderopacity="1"
     objecttolerance="10"
     gridtolerance="10"
     guidetolerance="10"
     inkscape:pageopacity="0"
     inkscape:pageshadow="2"
     inkscape:window-width="1085"
     inkscape:window-height="480"
     id="namedview6"
     showgrid="false"
     inkscape:zoom="9.8333333"
     inkscape:cx="1.0677966"
     inkscape:cy="12"
     inkscape:window-x="0"
     inkscape:window-y="25"
     inkscape:window-maximized="0"
     inkscape:current-layer="svg4" />
  <path
     d="m 1.73,1.02 v 0.72 h 2.9 V 1.02 Z M 1,2.1 A 0.39,0.39 0 0 0 0.64,2.46 V 3.91 C 0.64,4.09 0.82,4.27 1,4.27 H 1.36 V 3.54 h 0.37 v 1.78 h 2.9 V 3.55 H 4.99 V 4.28 H 5.35 C 5.53,4.28 5.71,4.1 5.71,3.92 V 2.47 A 0.39,0.39 0 0 0 5.35,2.11 Z M 2.05,3.54 H 4.3 V 5.01 H 2.05 Z M 2.35,3.9 3.17,4.73 4,3.9 Z"
     id="path2"
     inkscape:connector-curvature="0"
     style="fill:#a02c2c" />
</svg>
